images/moldable_icon.svg

<?xml version="1.0" encoding="UTF-8"?>
<svg width="38px" height="25px" viewBox="0 0 38 25" version="1.1" xmlns="http://www.w3.org/2000/svg" xmlns:xlink="http://www.w3.org/1999/xlink">
    <!-- Generator: Sketch 45.2 (43514) - http://www.bohemiancoding.com/sketch -->
    <title>moldable_icon</title>
    <desc>Created with Sketch.</desc>
    <defs></defs>
    <g id="Round-3" stroke="none" stroke-width="1" fill="none" fill-rule="evenodd">
        <g id="Home" transform="translate(-97.000000, -1240.000000)" stroke="#000000">
            <g id="moldable_icon" transform="translate(97.000000, 1240.000000)">
                <path d="M37,7.5 C37,3.65 33.85,0.5 30,0.5 C26.685,0.5 23.895,2.837 23.182,5.944 L26.505,6.739 C29.939,7.56 32.177,10.822 31.834,14.247 C34.8,13.435 37,10.715 37,7.5 Z" id="Stroke-1"></path>
                <path d="M23,7.5 C23,6.965 23.066,6.445 23.182,5.944 L17.751,4.646 C14.007,3.75 10.211,6.081 9.315,9.825 C9.298,9.899 9.29,9.972 9.274,10.046 C9.02,10.018 8.762,10 8.5,10 L7.5,10 C3.65,10 0.5,13.15 0.5,17 C0.5,20.85 3.65,24 7.5,24 L8.5,24 C11.848,24 14.664,21.617 15.342,18.464 L23.249,20.354 C26.993,21.25 30.789,18.919 31.685,15.175 C31.759,14.865 31.803,14.555 31.834,14.247 C31.248,14.407 30.635,14.5 30,14.5 C26.15,14.5 23,11.35 23,7.5 Z" id="Stroke-3"></path>
            </g>
        </g>
    </g>
</svg>

<svg xmlns="http://www.w3.org/2000/svg" width="38" height="25"><title>moldable_icon</title><desc>Created with Sketch.</desc><g fill="none"><g stroke="#000"><g><path d="M37 7.5c0-3.85-3.15-7-7-7-3.32 0-6.1 2.34-6.82 5.44l3.32.8c3.44.82 5.68 4.08 5.33 7.5C34.8 13.45 37 10.72 37 7.5z"/><path d="M23 7.5c0-.54.07-1.05.18-1.56l-5.43-1.3C14 3.75 10.2 6.1 9.3 9.83c0 .08 0 .15-.03.23-.25-.03-.5-.05-.77-.05h-1c-3.85 0-7 3.15-7 7s3.15 7 7 7h1c3.35 0 6.16-2.38 6.84-5.54l7.9 1.9c3.75.9 7.55-1.44 8.45-5.18.06-.3.1-.63.13-.93-.58.16-1.2.25-1.83.25-3.85 0-7-3.15-7-7z"/></g></g></g></svg>
